X:90
T:Cameronean Rant,The. JMP.090
M:2/4
L:1/8
Q:1/2=80
S:John Miller MS. Perth, 1799.(for the fife)
R:.Reel
O:Scotland
A:Perth
N:1 â€“ there is a squiggle over this group of notes, on the stave. It
N:looks like three slurs joined together, but is possibly a trill
H:1799
Z:vmp.C. Graebe
K:G major
(d/c/) | BG â€œ1â€ (GF/G/) | BGdG | BG â€œ1â€ (GF/G/) | d2 cB |!
cA â€œ1â€ (AB/A/) | cAeA | cA â€œ1â€ (AB/A/) | e2 dc :|!
|:Bgga | gedB | Ggga | gedB |Aaab |!
agfg | Aaab| agfg | Ggga | gedB | !
Ggga | gfeg | faea |faea gaba | agfâ€DCâ€e |]

